X: 1301
T: Kürdîlihicazkâr Sazsemâîsi
C: Yalçın Tura
O: Turkey
F: http://compmusic.upf.edu/node/140
N: kurdilihicazkar--sazsemaisi--aksaksemai----yalcin_tura
N: makam= kurdilihicazkar
N: form= sazsemaisi
N: usul= aksaksemai = 10/8
M: 10/8
L: 1/16
K: C _B _e _A 
Q: 1/4=198
%%MIDI tuningsystem comma53
z4 ^f2g4_7/8a4g4f2  | ^f4 g2f2 _7/8e2e2 d2e6  | \
w:   |   | 
_7/8e4 d2e2 ^f2g2 _7/8a2f4a2  | 
w:   | 
g4 c'2_1/4b2 _7/8a2a2 g2g6  | g4 ^f2g4_7/8a4g4f2  | \
w:   |   | 
^f4 g2f2 _7/8e2e2 d2e6  | _7/8e4 d2e2 ^f2g2 =a2f2 e2d2  | 
w:   |   | 
d4 _7/8e2d2 c2_1/4B2 c2d6  | z4 d2_1/4e4g4f4_e2  | \
w:   |   | 
d4 e2d2 c2c2 d2B4A2  | 
w:   | 
G4 e2d2 c2B2 c2B2 A2G2  | G4 D2_7/8E2 ^F2G2 _7/8A2_1/4B2 c2d2  | \
w:   |   | 
_7/8e4 d2_e4g4f2 e2d2  | 
w:   | 
d4 e2d2 c2c2 d2B4A2  | G4 e2d2 c2B2 c2B2 A2G2  | \
w:   |   | 
G8-G2D4G4z2  | 
w:   | 
z4 g2_7/8a4g4^f6  | ^f2_7/8e2 f2g4f4e6  | \
w:   |   | 
d2_7/8e2 ^f2g2 _7/8a2_1/4b2 c'2d'2 b4  | \
w:   | 
c'2_1/4b2 c'2b2 _7/8a2a2 g2g6  | 
w:   | 
g4 g2_7/8a4g4^f4f2  | ^f2_7/8e2 f2g4f4e6  | \
w:   |   | 
_7/8e2d2 e2^f2 g2f2 e2d4c2  | 
w:   | 
_1/4B4 c2d2 _7/8e2c2 e2d6  | z4 d2_1/4e4g4f4_e2  | \
w:   |   | 
d4 e2d2 c2c2 d2B4A2  | 
w:   | 
G4 e2d2 c2B2 c2B2 A2G2  | G4 D2_7/8E2 ^F2G2 _7/8A2_1/4B2 c2d2  | \
w:   |   | 
_7/8e4 d2_e4g4f2 e2d2  | 
w:   | 
d4 e2d2 c2c2 d2B4A2  | G4 e2d2 c2B2 c2B2 A2G2  | \
w:   |   | 
G8-G2D4G4z2  | 
w:   | 
z4 ^F2G4=A4F6  | ^F4 F2G2 =A2B4G6  | \
w:   |   | 
G4 G2=A2 B2c2 A2B4c2  | d4 e2d2 c2B2 c2d4d2  | 
w:   |   | 
z4 ^F2G4=A4F6  | ^F4 F2G2 =A2B4G6  | \
w:   |   | 
G4 G2=A2 B2c2 A2B4c2  | d4 e2d2 c2B2 c2d4d2  | 
w:   |   | 
d4 d2b4=a4g6  | d2e2 f2g2 f2e2 d2c4e2  | \
w:   |   | 
d6G4=A2 B2c2 B2A2  | 
w:   | 
B4 B2c4d2 e2d6  | d4 d2b4=a4g6  | d2e2 f2g2 f2e2 d2c4e2  | \
w:   |   |   | 
d6G4=A2 B2c2 B2A2  | 
w:   | 
B4 B2=A2 c2B2 A2G6  | z4 d2_1/4e4g4f4_e2  | \
w:   |   | 
d4 e2d2 c2c2 d2B4A2  | 
w:   | 
G4 e2d2 c2B2 c2B2 A2G2  | G4 D2_7/8E2 ^F2G2 _7/8A2_1/4B2 c2d2  | \
w:   |   | 
_7/8e4 d2_e4g4f2 e2d2  | 
w:   | 
d4 e2d2 c2c2 d2B4A2  | G4 e2d2 c2B2 c2B2 A2G2  | \
w:   |   | 
G8-G2D4G4z2  | 
w:   | 
z12  | g2d2c2_1/4B6  | =A2_1/4BcBAG6  | \
w:  |  4. HANE  |   | 
g2ddc2_1/4B6  | =A2_1/4BcBAB4c2  | 
w:   |   | 
d2=e2f2edc_1/4Bce  | d2G2=e2dc_1/4B=ABd  | \
w:   |   | 
c2_1/4B2=A2dcB^AGB  | 
w:   | 
=AGA2_1/4B2G6  | g2d2c2B6  | =A2B2c2BAG4  | \
w:   |   |   | 
g2ddc2B6  | =A2BcBABcd4  | 
w:   |   | 
d2e2f2edc_1/4Bce  | c2G2e2dcB=ABc  | \
w:   |   | 
B2=A2G2dcBABc  | 
w:   | 
=ABAGABG6  | z20  | z4 d2_1/4e4g4f4_e2  | \
w:   |  |   | 
d4 e2d2 c2c2 d2B4A2  | 
w:   | 
G4 e2d2 c2B2 c2B2 A2G2  | G4 D2_7/8E2 ^F2G2 _7/8A2_1/4B2 c2d2  | \
w:   |   | 
_7/8e4 d2_e4g4f2 e2d2  | 
w:   | 
d4 e2d2 c2c2 d2B4A2  | G4 e2d2 c2B2 c2B2 A2G2  | \
w:   |   | 
G8-G2D4G4z2  | 
w:   | 
|


